aet-logo-mark-sharepoint-teams-thumbnail-v1.0-64x64-4x.svg

<svg fill="none" height="65" viewBox="0 0 65 65" width="65" xmlns="http://www.w3.org/2000/svg" xmlns:xlink="http://www.w3.org/1999/xlink"><filter id="a" color-interpolation-filters="sRGB" filterUnits="userSpaceOnUse" height="30.2959" width="63.8505" x=".936005" y="12.2717"><feFlood flood-opacity="0" result="BackgroundImageFix"/><feColorMatrix in="SourceAlpha" result="hardAlpha" type="matrix" values="0 0 0 0 0 0 0 0 0 0 0 0 0 0 0 0 0 0 127 0"/><feOffset dx=".5" dy=".5"/><feGaussianBlur stdDeviation=".5"/><feComposite in2="hardAlpha" operator="out"/><feColorMatrix type="matrix" values="0 0 0 0 0.0784314 0 0 0 0 0.0980392 0 0 0 0 0.121569 0 0 0 1 0"/><feBlend in2="BackgroundImageFix" mode="normal" result="effect1_dropShadow_43_238"/><feBlend in="SourceGraphic" in2="effect1_dropShadow_43_238" mode="normal" result="shape"/></filter><clipPath id="b"><path d="m.349731.071655h64v64h-64z"/></clipPath><g clip-path="url(#b)"><path d="m0 0h64v64h-64z" fill="#182534" transform="translate(.349731 .071655)"/><g fill="#fff" filter="url(#a)"><path d="m1.63625 41.0676c-.14646 0-.24324-.1523-.18111-.2849l13.06946-27.8959c.0329-.0702.1035-.1151.1811-.1151h24.5706c.1404 0 .2371.1409.1866.2719l-1.4817 3.8418c-.0089.023-.0134.0474-.0134.072v.3018c0 .1104-.0896.2-.2.2h-11.3926c-.1105 0-.2.0895-.2.2v6.8021c0 .1105.0895.2.2.2h12.473c.1402 0 .2369.1407.1867.2716l-1.3739 3.5827c-.0087.0229-.0132.0471-.0132.0716v.2686c0 .1105-.0896.2-.2.2h-11.0726c-.1105 0-.2.0896-.2.2v6.9243c0 .1104.0895.2.2.2h12.9011c.1404 0 .2372.1409.1866.2719l-1.4817 3.8435c-.0089.0229-.0134.0473-.0134.0719v.3002c0 .1104-.0896.2-.2.2h-16.9834c-.1105 0-.2-.0896-.2-.2v-7.0952c0-.1104-.0896-.2-.2-.2h-9.413c-.0781 0-.1491.0456-.1817.1166l-3.33539 7.262c-.03262.0711-.10361.1166-.18175.1166zm16.87895-23.9014c-.0781 0-.149.0454-.1817.1163l-5.4065 11.7338c-.061.1325.0358.2837.1817.2837h7.2757c.1104 0 .2-.0896.2-.2v-11.7338c0-.1105-.0896-.2-.2-.2z"/><path d="m49.217 41.0676c-.1105 0-.2-.0896-.2-.2v-23.2084c0-.1105-.0895-.2-.2-.2h-6.2792c-.1105 0-.2-.0896-.2-.2v-.302c0-.0245-.0045-.0487-.0133-.0716l-1.4726-3.8424c-.0502-.1309.0465-.2715.1867-.2715h22.0477c.1404 0 .2371.1409.1866.2719l-1.4817 3.8418c-.0089.023-.0134.0474-.0134.072v.3018c0 .1104-.0896.2-.2.2h-6.2817c-.1105 0-.2.0895-.2.2v23.2084c0 .1104-.0895.2-.2.2z"/></g></g></svg>

<svg width="65" height="65" viewBox="0 0 65 65" fill="none" xmlns="http://www.w3.org/2000/svg">
<g clip-path="url(#clip0_43_238)">
<rect width="64" height="64" transform="translate(0.349731 0.0716553)" fill="#182534"/>
<g filter="url(#filter0_d_43_238)">
<path d="M1.63625 41.0676C1.48979 41.0676 1.39301 40.9153 1.45514 40.7827L14.5246 12.8868C14.5575 12.8166 14.6281 12.7717 14.7057 12.7717H39.2763C39.4167 12.7717 39.5134 12.9126 39.4629 13.0436L37.9812 16.8854C37.9723 16.9084 37.9678 16.9328 37.9678 16.9574V17.2592C37.9678 17.3696 37.8782 17.4592 37.7678 17.4592H26.3752C26.2647 17.4592 26.1752 17.5487 26.1752 17.6592V24.4613C26.1752 24.5718 26.2647 24.6613 26.3752 24.6613H38.8482C38.9884 24.6613 39.0851 24.802 39.0349 24.9329L37.661 28.5156C37.6523 28.5385 37.6478 28.5627 37.6478 28.5872V28.8558C37.6478 28.9663 37.5582 29.0558 37.4478 29.0558H26.3752C26.2647 29.0558 26.1752 29.1454 26.1752 29.2558V36.1801C26.1752 36.2905 26.2647 36.3801 26.3752 36.3801H39.2763C39.4167 36.3801 39.5135 36.521 39.4629 36.652L37.9812 40.4955C37.9723 40.5184 37.9678 40.5428 37.9678 40.5674V40.8676C37.9678 40.978 37.8782 41.0676 37.7678 41.0676H20.7844C20.6739 41.0676 20.5844 40.978 20.5844 40.8676V33.7724C20.5844 33.662 20.4948 33.5724 20.3844 33.5724H10.9714C10.8933 33.5724 10.8223 33.618 10.7897 33.689L7.45431 40.951C7.42169 41.0221 7.3507 41.0676 7.27256 41.0676H1.63625ZM18.5152 17.1662C18.4371 17.1662 18.3662 17.2116 18.3335 17.2825L12.927 29.0163C12.866 29.1488 12.9628 29.3 13.1087 29.3H20.3844C20.4948 29.3 20.5844 29.2104 20.5844 29.1V17.3662C20.5844 17.2557 20.4948 17.1662 20.3844 17.1662H18.5152Z" fill="white"/>
<path d="M49.217 41.0676C49.1065 41.0676 49.017 40.978 49.017 40.8676V17.6592C49.017 17.5487 48.9275 17.4592 48.817 17.4592H42.5378C42.4273 17.4592 42.3378 17.3696 42.3378 17.2592V16.9572C42.3378 16.9327 42.3333 16.9085 42.3245 16.8856L40.8519 13.0432C40.8017 12.9123 40.8984 12.7717 41.0386 12.7717H63.0863C63.2267 12.7717 63.3234 12.9126 63.2729 13.0436L61.7912 16.8854C61.7823 16.9084 61.7778 16.9328 61.7778 16.9574V17.2592C61.7778 17.3696 61.6882 17.4592 61.5778 17.4592H55.2961C55.1856 17.4592 55.0961 17.5487 55.0961 17.6592V40.8676C55.0961 40.978 55.0066 41.0676 54.8961 41.0676H49.217Z" fill="white"/>
</g>
</g>
<defs>
<filter id="filter0_d_43_238" x="0.936005" y="12.2717" width="63.8505" height="30.2959" filterUnits="userSpaceOnUse" color-interpolation-filters="sRGB">
<feFlood flood-opacity="0" result="BackgroundImageFix"/>
<feColorMatrix in="SourceAlpha" type="matrix" values="0 0 0 0 0 0 0 0 0 0 0 0 0 0 0 0 0 0 127 0" result="hardAlpha"/>
<feOffset dx="0.5" dy="0.5"/>
<feGaussianBlur stdDeviation="0.5"/>
<feComposite in2="hardAlpha" operator="out"/>
<feColorMatrix type="matrix" values="0 0 0 0 0.0784314 0 0 0 0 0.0980392 0 0 0 0 0.121569 0 0 0 1 0"/>
<feBlend mode="normal" in2="BackgroundImageFix" result="effect1_dropShadow_43_238"/>
<feBlend mode="normal" in="SourceGraphic" in2="effect1_dropShadow_43_238" result="shape"/>
</filter>
<clipPath id="clip0_43_238">
<rect width="64" height="64" fill="white" transform="translate(0.349731 0.0716553)"/>
</clipPath>
</defs>
</svg>
